docs/themes/v2/source/images/design/tip-icon.svg

<svg fill="none" height="14" viewBox="0 0 11 14" width="11" xmlns="http://www.w3.org/2000/svg"><path d="m9.85648 6.37796c-.17889-.23334-.39668-.43557-.59891-.6378-.52112-.46668-1.11225-.80113-1.61004-1.29114-1.15892-1.13559-1.4156-3.01009-.67669-4.44902-.73891.178894-1.38448.58335-1.93672 1.0267-2.0145 1.61782-2.80786 4.47235-1.85894 6.92242.03111.07778.06222.15556.06222.25667 0 .17112-.11667.32668-.27223.3889-.17889.07778-.36556.03111-.51334-.09334-.04441-.03671-.08138-.0816-.1089-.13222-.87891-1.11226-1.01892-2.70675-.42779-3.98234-1.298923 1.05781-2.0067207 2.84675-1.90560671 4.53458.04666801.3889.09333571.7778.22556171 1.16673.108892.4666.318898.9333.552238 1.3456.840027 1.3456 2.294507 2.31 3.857887 2.5045 1.66449.21 3.44566-.0934 4.72125-1.2445 1.42333-1.2912 1.92113-3.3601 1.19003-5.13348l-.1011-.20223c-.1634-.35779-.59892-.98003-.59892-.98003zm-2.45785 4.90014c-.21778.1867-.57557.3889-.85558.4667-.87113.3111-1.74227-.1245-2.25562-.6378.92559-.2178 1.47782-.9023 1.64116-1.59451.13223-.62224-.11667-1.13558-.21778-1.73449-.09334-.57557-.07778-1.06559.13222-1.60227.14778.29557.30335.59113.49002.82447.5989.7778 1.54004 1.12003 1.74227 2.17784.03111.10889.04667.21778.04667.33445.02333.63781-.25668 1.33781-.72336 1.76561z" fill="#57b7ab"/></svg>

<svg width="11" height="14" viewBox="0 0 11 14" fill="none" xmlns="http://www.w3.org/2000/svg">
<path d="M9.85648 6.37796C9.67759 6.14462 9.4598 5.94239 9.25757 5.74016C8.73645 5.27348 8.14532 4.93903 7.64753 4.44902C6.48861 3.31343 6.23193 1.43893 6.97084 0C6.23193 0.178894 5.58636 0.58335 5.03412 1.0267C3.01962 2.64452 2.22626 5.49905 3.17518 7.94912C3.20629 8.0269 3.2374 8.10468 3.2374 8.20579C3.2374 8.37691 3.12073 8.53247 2.96517 8.59469C2.78628 8.67247 2.59961 8.6258 2.45183 8.50135C2.40742 8.46464 2.37045 8.41975 2.34293 8.36913C1.46402 7.25687 1.32401 5.66238 1.91514 4.38679C0.616217 5.4446 -0.0915807 7.23354 0.00953329 8.92137C0.0562013 9.31027 0.102869 9.69917 0.235095 10.0881C0.343987 10.5547 0.553993 11.0214 0.787333 11.4337C1.62736 12.7793 3.08184 13.7437 4.64522 13.9382C6.30971 14.1482 8.09088 13.8448 9.36647 12.6937C10.7898 11.4025 11.2876 9.3336 10.5565 7.56022L10.4554 7.35799C10.292 7.0002 9.85648 6.37796 9.85648 6.37796ZM7.39863 11.2781C7.18085 11.4648 6.82306 11.667 6.54305 11.7448C5.67192 12.0559 4.80078 11.6203 4.28743 11.107C5.21302 10.8892 5.76525 10.2047 5.92859 9.51249C6.06082 8.89025 5.81192 8.37691 5.71081 7.778C5.61747 7.20243 5.63303 6.71241 5.84303 6.17573C5.99081 6.4713 6.14638 6.76686 6.33305 7.0002C6.93195 7.778 7.87309 8.12023 8.07532 9.17804C8.10643 9.28693 8.12199 9.39582 8.12199 9.51249C8.14532 10.1503 7.86531 10.8503 7.39863 11.2781Z" fill="#57B7AB"/>
</svg>
